X:1
T:F Major Oliver Holden, 1800
T:Isaac Watts, 1719 (Hymn 54, Book 2)  86. 86. (C. M.)
T:Opening Heavens No copyright. Counter and editing by B. C. Johnston, 2015.
%%score [ 1 2 3 4 ]
L:1/8
M:4/4
K:F
V:1 treble nm="Treble" snm="Tr."
V:2 treble nm="Counter" snm="C."
V:3 treble-8 nm="Tenor" snm="T."
V:4 bass nm="Bass" snm="B."
V:1
 A4 | (c2 B2) (A2 G2) | (F3 G A2) B2 | (A2 G2) (F2 E2) | (F4 C2) C2 | (G2 A2) (B2 c2) | %6
w: ||||||
w: ||||||
 (d2 B2) G4 | F8 | z8 | z8 | z8 | z8 | z8 | z8 | z8 | z4 A4 | c2 c2 A2 c2 | dc BA G2 A2 | %18
w: ||||||||||||
w: ||||||||||||
 B2 d2 c2 =B2 | c8 | A4 B2 c2 | d6 z2 | z8 | c4 A2 c2 | d3 c d2 e2 | f4 d4 | (cBAB c2) B2 | A4 G4 | %28
w: ||Run up with|joy|||||||
w: ||He is my|soul's|||||||
 F8 |] %29
w: |
w: |
V:2
 F4 | (A2 G2) (A2 B2) | (c3 B A2) F2 | (F2 E2) (F2 G2) | (A4 F2) F2 | (E2 F2) (G2 A2) | G4 G4 | %7
w: 1.~The|open- * ing *|heavens * * a-|round * me *|shine, * With|beams * of *|sac- red|
w: 2.~My|God, * the *|spring * * of|all * my *|joys, * The|life * of *|my de-|
 F8 | z8 | z8 | z8 | z8 | z8 | z8 | z8 | z4 C4 | F2 F2 F2 F2 | GF EF G2 A2 | G2 F2 E2 D2 | E8 | %20
w: bliss,||||||||My|soul would leave this|hea- * vy * clay At|that trans- port- ing|word,|
w: lights,||||||||In|dark- est shades if|He * ap- * pear, My|dawn- ing is be-|gun,|
 z8 | z8 | z8 | F4 F2 F2 | F3 F F2 G2 | A4 G4 | (ABAG A2) G2 | F4 E4 | F8 |] %29
w: |||Run up with|joy the shi- ning|way, T''em-|brace~ * * * * my|dear- est|Lord.|
w: |||He is my|soul's sweet morn- ing|star, And|He~ * * * * my|ris- ing|sun.|
V:3
 F4 | (A2 G2) (c2 B2) | (A3 B c2) d2 | (c2 B2) (A2 G2) | A6 A2 | (B2 c2) (G2 A2) | %6
w: ||||||
w: ||||||
 (B2 d2) (c2 B2) | A8 | c4 (d2 c2) | (c2 B2) (B2 A2) | (A2 f2) (d2 c2) | (B2 A2) G4- | %12
w: ||While Je- *|sus * shows *|His * heart *|is * mine,|
w: ||The glo- *|ry * of *|my * bright- *|est * days,|
 G2 G2 (B2 A2) | (G2 A2) (B2 G2) | (F2 E2) F4- | F4 F4 | A2 A2 c2 A2 | BA GA B2 f2 | e2 f2 e2 d2 | %19
w: * And whis- *|pers * I *|am * His.~|||||
w: * And com- *|fort * of *|my * nights.~|||||
 c8 | z8 | z4 z2 c2 | d2 e2 f4 | A4 c2 A2 | f3 c B2 B2 | A4 B4 | (AGFG A2) d2 | c4 B4 | A8 |] %29
w: ||the|shin- ing way,|||||||
w: ||sweet|morn- ing star,|||||||
V:4
 F,4 | F,4 C,4 | F,6 F,2 | F,4 C,4 | F,6 F,2 | C4 C,4 | B,,4 C,4 | F,8 | A,4 (B,2 A,2) | %9
w: |||||||||
w: |||||||||
 (A,2 G,2) (G,2 F,2) | F,4 (B,2 A,2) | (A,2 G,2) C,4- | C,2 E,2 (G,2 F,2) | E,2 F,2 C,4 | %14
w: |||||
w: |||||
 C,4 F,4- | F,4 F,4 | F,2 F,2 F,2 F,2 | B,A, G,F, E,2 F,2 | G,2 G,2 G,2 G,2 | C,8 | F,4 G,2 A,2 | %21
w: ||||||Run up with|
w: ||||||He is my|
 B,6 A,2 | B,2 C2 D4 | A,4 F,2 F,2 | B,3 A, B,2 C2 | F,4 [B,,B,]4 | [A,,A,]4 [B,,B,]4 | %27
w: joy the|shin- ing way,|||||
w: soul's sweet|morn- ing star,|||||
 [C,C]4 C,4 | F,8 |] %29
w: ||
w: ||

